app/images/taxonomy.svg

<svg xmlns="http://www.w3.org/2000/svg" width="100" height="100"><path fill="#27AE60" d="M100 94c0 3.313-2.687 6-6 6h-88c-3.313 0-6-2.687-6-6v-78c0-3.313 2.687-6 6-6h88c3.313 0 6 2.687 6 6v78z"/><path fill-rule="evenodd" clip-rule="evenodd" fill="#fff" d="M82 87c0 1.104-.896 2-2 2h-60c-1.104 0-2-.896-2-2v-69c0-1.104.896-2 2-2h60c1.104 0 2 .896 2 2v69z"/><path fill-rule="evenodd" clip-rule="evenodd" fill="#BDC3C7" d="M72 20h-44c-1.657 0-3-1.343-3-3v-7c0-1.657 1.343-3 3-3h15c0-3.866 3.134-7 7-7s7 3.134 7 7h15c1.657 0 3 1.343 3 3v7c0 1.657-1.343 3-3 3zm-22-16c-1.657 0-3 1.344-3 3 0 1.657 1.343 3 3 3s3-1.343 3-3c0-1.656-1.343-3-3-3z"/><path fill-rule="evenodd" clip-rule="evenodd" fill="#A1A6A9" d="M72 20h-44c-1.656 0-3-1.343-3-3v-2c0 1.657 1.344 3 3 3h44c1.656 0 3-1.343 3-3v2c0 1.657-1.344 3-3 3z"/><path opacity=".15" fill-rule="evenodd" clip-rule="evenodd" d="M94 97h-88c-3.313 0-6-2.687-6-6v3c0 3.313 2.687 6 6 6h88c3.313 0 6-2.687 6-6v-3c0 3.313-2.687 6-6 6z"/><path fill-rule="evenodd" clip-rule="evenodd" fill="#BDC3C7" d="M41 40.999v3h31v-3h-31zm0 14.001h31v-3.001h-31v3.001zm0 10.998h31v-2.999h-31v2.999zm0 11.001h31v-3h-31v3zm-13-31h7v-7h-7v7zm0 11h7v-7h-7v7zm0 11h7v-7h-7v7zm0 11.001h7v-7.001h-7v7.001z"/><path fill-rule="evenodd" clip-rule="evenodd" fill="#27AE60" d="M41 29v3.001h31v-3.001h-31zm-5.073-1.214l-.708-.713c-.097-.098-.256-.098-.354 0l-3.728 3.703c-.098.099-.257.099-.354 0l-1.633-1.66c-.048-.049-.112-.072-.175-.073-.064 0-.13.023-.179.073l-.722.648c-.048.049-.074.11-.074.175l.011.054h-.011v.998h.011l.063.127 1.647 1.725.354.355.708.713c.097.098.256.098.354 0l4.79-4.771.067-.144h.006v-.998h-.006c.01-.076-.01-.155-.067-.212z"/><path fill-rule="evenodd" clip-rule="evenodd" fill="#A1A6A9" d="M50 4c1.305 0 2.403.837 2.816 2 .112-.313.184-.646.184-.999 0-1.657-1.344-3-3-3-1.657 0-3.001 1.343-3.001 3 0 .353.072.686.184 1 .413-1.163 1.512-2.001 2.817-2.001z"/></svg>

<?xml version="1.0" encoding="UTF-8" standalone="no"?>
<svg width="100px" height="100px" viewBox="0 0 100 100" version="1.1" xmlns="http://www.w3.org/2000/svg" xmlns:xlink="http://www.w3.org/1999/xlink" xmlns:sketch="http://www.bohemiancoding.com/sketch/ns">
    <!-- Generator: Sketch 3.1.1 (8761) - http://www.bohemiancoding.com/sketch -->
    <title>taxonomy</title>
    <desc>Created with Sketch.</desc>
    <defs></defs>
    <g id="Page-1" stroke="none" stroke-width="1" fill="none" fill-rule="evenodd" sketch:type="MSPage">
        <g id="taxonomy" sketch:type="MSLayerGroup">
            <path d="M100,94 C100,97.313 97.313,100 94,100 L6,100 C2.687,100 0,97.313 0,94 L0,16 C0,12.687 2.687,10 6,10 L94,10 C97.313,10 100,12.687 100,16 L100,94 L100,94 Z" id="Shape" fill="#3498DB" sketch:type="MSShapeGroup"></path>
            <path d="M82,87 C82,88.104 81.104,89 80,89 L20,89 C18.896,89 18,88.104 18,87 L18,18 C18,16.896 18.896,16 20,16 L80,16 C81.104,16 82,16.896 82,18 L82,87 L82,87 Z" id="Shape" fill="#FFFFFF" sketch:type="MSShapeGroup"></path>
            <path d="M72,20 L28,20 C26.343,20 25,18.657 25,17 L25,10 C25,8.343 26.343,7 28,7 L43,7 C43,3.134 46.134,0 50,0 C53.866,0 57,3.134 57,7 L72,7 C73.657,7 75,8.343 75,10 L75,17 C75,18.657 73.657,20 72,20 L72,20 Z M50,4 C48.343,4 47,5.344 47,7 C47,8.657 48.343,10 50,10 C51.657,10 53,8.657 53,7 C53,5.344 51.657,4 50,4 L50,4 Z" id="Shape" fill="#BDC3C7" sketch:type="MSShapeGroup"></path>
            <path d="M72,20 L28,20 C26.344,20 25,18.657 25,17 L25,15 C25,16.657 26.344,18 28,18 L72,18 C73.656,18 75,16.657 75,15 L75,17 C75,18.657 73.656,20 72,20 L72,20 Z" id="Shape" fill="#A1A6A9" sketch:type="MSShapeGroup"></path>
            <path d="M94,97 L6,97 C2.687,97 0,94.313 0,91 L0,94 C0,97.313 2.687,100 6,100 L94,100 C97.313,100 100,97.313 100,94 L100,91 C100,94.313 97.313,97 94,97 L94,97 Z" id="Shape" opacity="0.15" fill="#000000" sketch:type="MSShapeGroup"></path>
            <path d="M41,40.999 L41,43.999 L72,43.999 L72,40.999 L41,40.999 L41,40.999 Z M41,55 L72,55 L72,51.999 L41,51.999 L41,55 L41,55 Z M41,65.998 L72,65.998 L72,62.999 L41,62.999 L41,65.998 L41,65.998 Z M41,76.999 L72,76.999 L72,73.999 L41,73.999 L41,76.999 L41,76.999 Z M28,45.999 L35,45.999 L35,38.999 L28,38.999 L28,45.999 L28,45.999 Z M28,56.999 L35,56.999 L35,49.999 L28,49.999 L28,56.999 L28,56.999 Z M28,67.999 L35,67.999 L35,60.999 L28,60.999 L28,67.999 L28,67.999 Z M28,79 L35,79 L35,71.999 L28,71.999 L28,79 L28,79 Z" id="Shape" fill="#BDC3C7" sketch:type="MSShapeGroup"></path>
            <path d="M41,29 L41,32.001 L72,32.001 L72,29 L41,29 L41,29 Z M35.927,27.786 L35.219,27.073 C35.122,26.975 34.963,26.975 34.865,27.073 L31.137,30.776 C31.039,30.875 30.88,30.875 30.783,30.776 L29.15,29.116 C29.102,29.067 29.038,29.044 28.975,29.043 C28.911,29.043 28.845,29.066 28.796,29.116 L28.074,29.764 C28.026,29.813 28,29.874 28,29.939 L28.011,29.993 L28,29.993 L28,30.991 L28.011,30.991 L28.074,31.118 L29.721,32.843 L30.075,33.198 L30.783,33.911 C30.88,34.009 31.039,34.009 31.137,33.911 L35.927,29.14 L35.994,28.996 L36,28.996 L36,27.998 L35.994,27.998 C36.004,27.922 35.984,27.843 35.927,27.786 L35.927,27.786 Z" id="Shape" fill="#27AE60" sketch:type="MSShapeGroup"></path>
            <path d="M50,4 C51.305,4 52.403,4.837 52.816,6 C52.928,5.687 53,5.354 53,5.001 C53,3.344 51.656,2.001 50,2.001 C48.343,2.001 46.999,3.344 46.999,5.001 C46.999,5.354 47.071,5.687 47.183,6.001 C47.596,4.838 48.695,4 50,4 L50,4 Z" id="Shape" fill="#A1A6A9" sketch:type="MSShapeGroup"></path>
        </g>
    </g>
</svg>
